assets/Man guard/Medium-Dark/Flat/man_guard_flat_medium-dark.svg

<svg width="32" height="32" viewBox="0 0 32 32" fill="none" xmlns="http://www.w3.org/2000/svg">
<path d="M13 15.1899C13 16.1564 12.2165 16.9399 11.25 16.9399C10.2835 16.9399 9.5 16.1564 9.5 15.1899C9.5 14.2234 10.2835 13.4399 11.25 13.4399C12.2165 13.4399 13 14.2234 13 15.1899Z" fill="#8B5C56"/>
<path d="M22.5 15.1899C22.5 16.1564 21.7165 16.9399 20.75 16.9399C19.7835 16.9399 19 16.1564 19 15.1899C19 14.2234 19.7835 13.4399 20.75 13.4399C21.7165 13.4399 22.5 14.2234 22.5 15.1899Z" fill="#8B5C56"/>
<path d="M22.98 30L23.5 27L22.98 22.81C21.06 21.03 18.5 19.98 15.76 19.98C13 19.98 10.3519 21.1163 8.42188 22.9062L8.1875 26.4531L7.95312 30H22.98Z" fill="#F92F60"/>
<path d="M8.49 29.9998V22.8398C7.19 24.0598 6.18 25.6098 5.62 27.3898L5.59 27.4698C5.33 28.2998 5.13 29.1498 5 29.9998H8.49Z" fill="#CA0B4A"/>
<path d="M26.48 30.0001C26.3504 29.1301 26.1509 28.2801 25.8917 27.4401C25.3233 25.6201 24.3062 24.0401 22.98 22.8101V30.0001H26.48Z" fill="#CA0B4A"/>
<path d="M8.61775 22.5655L9.39324 23.3372C9.55438 23.486 9.81623 23.5046 9.99752 23.3651C10.7048 22.806 11.4904 22.3537 12.3289 22.0174C12.9456 23.475 14.3623 24.5 16.0053 24.5C17.6622 24.5 19.0791 23.4678 19.6852 22.002C20.5238 22.3344 21.3111 22.7826 22.0226 23.3372C22.1938 23.4767 22.4557 23.4674 22.6168 23.3093L23.3822 22.5376C23.5535 22.3702 23.5333 22.1099 23.352 21.9611C21.3076 20.3433 18.7192 19.46 16.0201 19.46C13.3009 19.46 10.7025 20.3526 8.64797 21.989C8.46668 22.1378 8.44654 22.3981 8.61775 22.5655Z" fill="#321B41"/>
<path d="M16.0047 23.5C14.8983 23.5 14 22.688 14 21.688V20.5H17.9999V21.688C18.0094 22.688 17.1111 23.5 16.0047 23.5Z" fill="#8B5C56"/>
<path d="M10 22.5C10 22.7761 9.77614 23 9.5 23C9.22386 23 9 22.7761 9 22.5C9 22.2239 9.22386 22 9.5 22C9.77614 22 10 22.2239 10 22.5Z" fill="#FCD53F"/>
<path d="M18 25.5C18 25.7761 17.7761 26 17.5 26C17.2239 26 17 25.7761 17 25.5C17 25.2239 17.2239 25 17.5 25C17.7761 25 18 25.2239 18 25.5Z" fill="#FCD53F"/>
<path d="M22.5 23C22.7761 23 23 22.7761 23 22.5C23 22.2239 22.7761 22 22.5 22C22.2239 22 22 22.2239 22 22.5C22 22.7761 22.2239 23 22.5 23Z" fill="#FCD53F"/>
<path d="M18 28.5C18 28.7761 17.7761 29 17.5 29C17.2239 29 17 28.7761 17 28.5C17 28.2239 17.2239 28 17.5 28C17.7761 28 18 28.2239 18 28.5Z" fill="#FCD53F"/>
<path d="M15.5541 7.62988C12.771 7.62988 10.5661 10.0382 10.7621 12.8761L11.1541 18.5721C11.3207 20.3608 12.7024 21.6299 14.388 21.6299H17.612C19.2976 21.6299 20.6695 20.3508 20.8459 18.5721L21.2379 12.8761C21.4339 10.0382 19.229 7.62988 16.4459 7.62988H15.5541V7.62988Z" fill="#966661"/>
<path d="M12.2572 14.7797C12.4061 14.1697 12.9522 13.7197 13.6074 13.7197C14.2825 13.7197 14.8484 14.2097 14.9774 14.8497C15.0072 14.9897 14.8881 15.1197 14.7491 15.1197H12.5253C12.3466 15.1197 12.2175 14.9497 12.2572 14.7797Z" fill="white"/>
<path d="M19.7428 14.7797C19.5939 14.1697 19.0478 13.7197 18.3926 13.7197C17.7076 13.7197 17.1417 14.2097 17.0226 14.8497C16.9928 14.9897 17.1119 15.1197 17.2509 15.1197H19.4747C19.6534 15.1197 19.7825 14.9497 19.7428 14.7797Z" fill="white"/>
<path d="M12.9224 14.8897C12.9224 14.3897 13.3195 13.9897 13.8159 13.9897C14.3023 13.9897 14.7094 14.3897 14.6994 14.8897C14.6994 14.9697 14.6895 15.0497 14.6697 15.1297H12.9521C12.9323 15.0497 12.9224 14.9697 12.9224 14.8897Z" fill="#7D4533"/>
<path d="M19.0776 14.8897C19.0776 14.3897 18.6805 13.9897 18.1841 13.9897C17.6877 13.9897 17.2906 14.3897 17.3005 14.8897C17.3005 14.9697 17.3104 15.0497 17.3303 15.1297H19.0478C19.0677 15.0497 19.0776 14.9697 19.0776 14.8897Z" fill="#7D4533"/>
<path d="M13.8159 14.3799C14.0939 14.3799 14.3222 14.6099 14.3222 14.8899C14.3222 14.9699 14.3024 15.0599 14.2626 15.1299H13.3691C13.3294 15.0599 13.3096 14.9799 13.3096 14.8899C13.3096 14.6099 13.5379 14.3799 13.8159 14.3799Z" fill="black"/>
<path d="M18.1742 14.3799C17.8962 14.3799 17.6679 14.6099 17.6679 14.8899C17.6679 14.9593 17.6903 15.0362 17.7092 15.1011C17.7121 15.111 17.7149 15.1206 17.7175 15.1299H18.621C18.6607 15.0599 18.6805 14.9799 18.6805 14.8899C18.6805 14.6099 18.4522 14.3799 18.1742 14.3799Z" fill="black"/>
<path d="M13.6669 14.5301C13.6669 14.6185 13.5958 14.6901 13.5081 14.6901C13.4204 14.6901 13.3492 14.6185 13.3492 14.5301C13.3492 14.4418 13.4204 14.3701 13.5081 14.3701C13.5958 14.3701 13.6669 14.4418 13.6669 14.5301Z" fill="white"/>
<path d="M18.065 14.5301C18.065 14.6185 17.9938 14.6901 17.9061 14.6901C17.8184 14.6901 17.7473 14.6185 17.7473 14.5301C17.7473 14.4418 17.8184 14.3701 17.9061 14.3701C17.9938 14.3701 18.065 14.4418 18.065 14.5301Z" fill="white"/>
<path d="M10.8963 11.4751L10.1036 11.5248L10.4994 17.8257C10.8 20.1446 12.7127 21.897 15.0062 21.897H17.0043C19.2978 21.897 21.2106 20.1446 21.5112 17.8257L21.8963 11.5241L21.1036 11.4758L20.7218 17.7367C20.4643 19.6749 18.8728 21.1028 17.0043 21.1028H15.0062C13.1377 21.1028 11.5461 19.6748 11.2887 17.7364L10.8963 11.4751Z" fill="#D3D3D3"/>
<path d="M16.0047 23.4999C15.8304 23.4999 15.6613 23.4798 15.5 23.4419V29.9999H16.5V23.4441C16.3416 23.4805 16.1756 23.4999 16.0047 23.4999Z" fill="#D3D3D3"/>
<path d="M22.75 9.25777C22.75 9.06731 22.7008 8.89689 22.6222 8.7365C22.4747 8.45581 22.4747 8.10495 22.6222 7.82426C22.7008 7.6739 22.75 7.49345 22.75 7.30299C22.75 7.1025 22.691 6.902 22.5927 6.74161C22.4354 6.47095 22.4255 6.14014 22.5533 5.8394C22.6713 5.54869 22.6713 5.20786 22.514 4.90712C22.4059 4.68658 22.2289 4.52619 22.0224 4.42594C21.7373 4.2856 21.5308 4.02496 21.4718 3.70417C21.4718 3.69415 21.4718 3.69415 21.4718 3.68412C21.3735 3.25307 21.0293 2.92226 20.6065 2.85209C20.5279 2.84206 20.4492 2.83204 20.3705 2.84206C20.0657 2.86211 19.7806 2.73179 19.5741 2.50123C19.3775 2.28069 19.1021 2.15037 18.7875 2.15037C18.64 2.15037 18.5024 2.18044 18.3745 2.24059C18.0697 2.37091 17.7354 2.35086 17.4601 2.17042C17.2831 2.07017 17.0767 2 16.8702 2C16.7129 2 16.5654 2.0401 16.4277 2.10025C16.1524 2.23056 15.8476 2.23056 15.5723 2.10025C15.4346 2.0401 15.2871 2 15.1298 2C14.9135 2 14.707 2.07017 14.5399 2.18044C14.2646 2.36088 13.9204 2.38093 13.6255 2.25061C13.4976 2.19047 13.36 2.16039 13.2125 2.16039C12.8979 2.16039 12.6225 2.30074 12.4259 2.51125C12.2194 2.74182 11.9343 2.87214 11.6295 2.85209C11.5508 2.85209 11.4721 2.85209 11.3935 2.86211C10.9707 2.93228 10.6167 3.26309 10.5282 3.69415C10.5282 3.70417 10.5282 3.70417 10.5282 3.7142C10.4594 4.03498 10.2431 4.29562 9.95794 4.43597C9.72196 4.55626 9.53514 4.74673 9.42698 5.01739C9.31883 5.29808 9.32866 5.59881 9.43682 5.85945C9.56464 6.15016 9.54497 6.48097 9.38765 6.76166C9.29916 6.92205 9.25 7.1025 9.25 7.30299C9.25 7.49345 9.29916 7.66387 9.37782 7.82426C9.52531 8.10495 9.52531 8.45581 9.37782 8.7365C9.28933 8.88687 9.25 9.06731 9.25 9.25777C9.25 9.44824 9.29916 9.61866 9.37782 9.77905C9.52531 10.0597 9.52531 10.4106 9.37782 10.6913C9.28933 10.8417 9.25 11.0221 9.25 11.2126C9.25 11.403 9.29916 11.5734 9.37782 11.7338C9.52531 12.0145 9.52531 12.3654 9.37782 12.6461C9.29916 12.7964 9.25 12.9769 9.25 13.1673C9.25 13.7688 9.72196 14.25 10.3119 14.25C10.3217 14.25 10.3414 14.25 10.3512 14.25C10.3611 14.25 10.3611 14.25 10.3709 14.25H21.6094C21.6193 14.25 21.6291 14.25 21.6389 14.25C21.6586 14.25 21.6684 14.25 21.6881 14.25C22.278 14.25 22.75 13.7688 22.75 13.1673C22.75 12.9769 22.7008 12.8065 22.6222 12.6461C22.4747 12.3654 22.4747 12.0145 22.6222 11.7338C22.7008 11.5835 22.75 11.403 22.75 11.2126C22.75 11.0221 22.7008 10.8517 22.6222 10.6913C22.4747 10.4106 22.4747 10.0597 22.6222 9.77905C22.7008 9.61866 22.75 9.44824 22.75 9.25777Z" fill="#321B41"/>
<path d="M15.5944 14.5684L15.0279 16.4631C14.9086 16.8566 15.1869 17.25 15.5845 17.25H16.4194C16.8071 17.25 17.0854 16.8566 16.976 16.4631L16.4095 14.5684C16.2902 14.1439 15.7236 14.1439 15.5944 14.5684Z" fill="#75443E"/>
<path d="M16.0077 18.1235C15.4554 18.1235 14.9317 17.984 14.4938 17.7448C14.3414 17.665 14.1891 17.8444 14.2748 17.984C14.6366 18.572 15.2745 18.9707 15.9982 18.9707C16.7218 18.9707 17.3597 18.582 17.7216 17.984C17.8168 17.8345 17.6549 17.655 17.5026 17.7448C17.0836 17.984 16.5599 18.1235 16.0077 18.1235Z" fill="#990838"/>
</svg>

<svg xmlns="http://www.w3.org/2000/svg" width="32" height="32" fill="none"><path fill="#8B5C56" d="M13 15.19a1.75 1.75 0 1 1-3.5 0 1.75 1.75 0 0 1 3.5 0ZM22.5 15.19a1.75 1.75 0 1 1-3.5 0 1.75 1.75 0 0 1 3.5 0Z"/><path fill="#F92F60" d="m22.98 30 .52-3-.52-4.19a10.611 10.611 0 0 0-7.22-2.83c-2.76 0-5.408 1.136-7.338 2.926l-.235 3.547L7.954 30H22.98Z"/><path fill="#CA0B4A" d="M8.49 30v-7.16c-1.3 1.22-2.31 2.77-2.87 4.55l-.03.08c-.26.83-.46 1.68-.59 2.53h3.49ZM26.48 30c-.13-.87-.33-1.72-.588-2.56a10.613 10.613 0 0 0-2.912-4.63V30h3.5Z"/><path fill="#321B41" d="m8.618 22.566.775.771a.476.476 0 0 0 .605.028 9.397 9.397 0 0 1 2.33-1.348c.618 1.458 2.034 2.483 3.677 2.483 1.657 0 3.074-1.032 3.68-2.498.839.332 1.626.78 2.338 1.335.17.14.433.13.594-.028l.765-.771a.38.38 0 0 0-.03-.577c-2.044-1.618-4.633-2.501-7.332-2.501-2.72 0-5.317.893-7.372 2.529a.38.38 0 0 0-.03.576Z"/><path fill="#8B5C56" d="M16.005 23.5c-1.107 0-2.005-.812-2.005-1.812V20.5h4v1.188c.01 1-.889 1.812-1.995 1.812Z"/><path fill="#FCD53F" d="M10 22.5a.5.5 0 1 1-1 0 .5.5 0 0 1 1 0ZM18 25.5a.5.5 0 1 1-1 0 .5.5 0 0 1 1 0ZM22.5 23a.5.5 0 1 0 0-1 .5.5 0 0 0 0 1ZM18 28.5a.5.5 0 1 1-1 0 .5.5 0 0 1 1 0Z"/><path fill="#966661" d="M15.554 7.63c-2.783 0-4.988 2.408-4.792 5.246l.392 5.696c.167 1.789 1.548 3.058 3.234 3.058h3.224c1.686 0 3.058-1.28 3.234-3.058l.392-5.696c.196-2.838-2.009-5.246-4.792-5.246h-.892Z"/><path fill="#fff" d="M12.257 14.78c.15-.61.695-1.06 1.35-1.06.676 0 1.241.49 1.37 1.13.03.14-.089.27-.228.27h-2.224a.278.278 0 0 1-.268-.34ZM19.743 14.78a1.388 1.388 0 0 0-1.35-1.06c-.685 0-1.251.49-1.37 1.13-.03.14.089.27.228.27h2.224c.178 0 .307-.17.268-.34Z"/><path fill="#7D4533" d="M12.922 14.89c0-.5.397-.9.894-.9.486 0 .893.4.883.9 0 .08-.01.16-.03.24h-1.717a.996.996 0 0 1-.03-.24ZM19.078 14.89c0-.5-.398-.9-.894-.9s-.893.4-.884.9c0 .08.01.16.03.24h1.718a.99.99 0 0 0 .03-.24Z"/><path fill="#000" d="M13.816 14.38a.51.51 0 0 1 .447.75h-.894a.51.51 0 0 1 .447-.75ZM18.174 14.38a.51.51 0 0 0-.506.51c0 .07.022.146.041.211l.009.029h.903a.51.51 0 0 0-.447-.75Z"/><path fill="#fff" d="M13.667 14.53a.16.16 0 0 1-.159.16.16.16 0 0 1-.159-.16.16.16 0 0 1 .16-.16.16.16 0 0 1 .158.16ZM18.065 14.53a.16.16 0 0 1-.159.16.16.16 0 0 1-.159-.16.16.16 0 0 1 .16-.16.16.16 0 0 1 .158.16Z"/><path fill="#D3D3D3" d="m10.896 11.475-.792.05.395 6.3c.301 2.32 2.214 4.072 4.507 4.072h1.998c2.294 0 4.207-1.752 4.507-4.071l.385-6.302-.792-.048-.382 6.26c-.258 1.939-1.85 3.367-3.718 3.367h-1.998c-1.868 0-3.46-1.428-3.717-3.367l-.393-6.26ZM16.005 23.5c-.175 0-.344-.02-.505-.058V30h1v-6.556a2.21 2.21 0 0 1-.495.056Z"/><path fill="#321B41" d="M22.75 9.258c0-.19-.05-.361-.128-.521a.996.996 0 0 1 0-.913 1.094 1.094 0 0 0-.03-1.083 1.004 1.004 0 0 1-.039-.902 1.108 1.108 0 0 0-.53-1.413 1.004 1.004 0 0 1-.551-.722v-.02a1.081 1.081 0 0 0-.866-.832c-.078-.01-.157-.02-.236-.01a.98.98 0 0 1-.796-.34 1.038 1.038 0 0 0-1.2-.261.957.957 0 0 1-.914-.07c-.177-.1-.383-.171-.59-.171-.157 0-.305.04-.442.1a.985.985 0 0 1-.856 0c-.137-.06-.285-.1-.442-.1-.216 0-.423.07-.59.18-.275.18-.62.2-.914.07a.958.958 0 0 0-.413-.09c-.315 0-.59.14-.787.351a.98.98 0 0 1-.796.341c-.08 0-.158 0-.237.01-.422.07-.776.401-.865.832v.02c-.069.321-.285.582-.57.722-.236.12-.423.31-.531.581-.108.281-.098.582.01.842.128.291.108.622-.05.903-.088.16-.137.34-.137.541 0 .19.05.36.128.521a.996.996 0 0 1 0 .912c-.089.15-.128.331-.128.522 0 .19.05.36.128.521a.996.996 0 0 1 0 .912c-.089.15-.128.331-.128.522 0 .19.05.36.128.52a.996.996 0 0 1 0 .913c-.079.15-.128.33-.128.521 0 .602.472 1.083 1.062 1.083H21.689c.589 0 1.061-.481 1.061-1.083 0-.19-.05-.36-.128-.52a.996.996 0 0 1 0-.913 1.133 1.133 0 0 0 0-1.043.996.996 0 0 1 0-.912c.079-.16.128-.33.128-.521Z"/><path fill="#75443E" d="m15.594 14.568-.566 1.895c-.12.394.159.787.556.787h.835c.388 0 .666-.393.557-.787l-.566-1.895a.42.42 0 0 0-.816 0Z"/><path fill="#990838" d="M16.008 18.123c-.553 0-1.076-.139-1.514-.378-.153-.08-.305.1-.22.239.363.588 1 .987 1.724.987s1.362-.389 1.724-.987c.095-.15-.067-.329-.22-.24-.418.24-.942.38-1.494.38Z"/></svg>
